packages/core/src/svgs/akt.svg

<svg width="24" height="24" viewBox="0 0 24 24" fill="none" xmlns="http://www.w3.org/2000/svg">
<g clip-path="url(#clip0_31_5863)">
<path d="M0 0H24V24H0V0Z" fill="url(#paint0_linear_31_5863)"/>
<path d="M9 5.14307L17.1557 18.4288L19.7143 13.9845L14.1171 5.14307H9Z" fill="#DB4533"/>
<path d="M9.42871 14.1431L12.0001 18.4288H17.143L14.5716 14.1431H9.42871Z" fill="#A12E2A"/>
<path d="M6.98564 9.42871L4.28564 13.9287L6.98564 18.4287L12.4285 9.42871H6.98564Z" fill="#DB4533"/>
</g>
<defs>
<linearGradient id="paint0_linear_31_5863" x1="4.46571" y1="4.16143" x2="29.2071" y2="32.58" gradientUnits="userSpaceOnUse">
<stop stop-color="#1A1E21"/>
<stop offset="1" stop-color="#06060A"/>
</linearGradient>
<clipPath id="clip0_31_5863">
<rect width="24" height="24" fill="white"/>
</clipPath>
</defs>
</svg>

<svg xmlns="http://www.w3.org/2000/svg" width="24" height="24" fill="none" viewBox="0 0 24 24"><g clip-path="url(#a)"><path fill="url(#b)" d="M0 0h24v24H0z"/><path fill="#DB4533" d="m9 5.143 8.156 13.286 2.558-4.444-5.597-8.842z"/><path fill="#A12E2A" d="M9.429 14.143 12 18.43h5.143l-2.571-4.286z"/><path fill="#DB4533" d="m6.986 9.429-2.7 4.5 2.7 4.5 5.443-9z"/></g><defs><linearGradient id="b" x1="4.466" x2="29.207" y1="4.161" y2="32.58" gradientUnits="userSpaceOnUse"><stop stop-color="#1A1E21"/><stop offset="1" stop-color="#06060A"/></linearGradient><clipPath id="a"><path fill="#fff" d="M0 0h24v24H0z"/></clipPath></defs></svg>
